app/dist/common/images/myomo.svg

<svg height="18" width="18" xmlns="http://www.w3.org/2000/svg"><path d="m0 0h18v18h-18z" fill="#60bb46"/><path d="m6 5h-2v8h2v-4.54c0-.41-.03-1.46 1-1.46 1 0 1 .94 1 1.46v4.54h2v-4.34c0-.8.12-1.7 1-1.66.88.03 1 .7 1 1.14v4.86h2v-5.57c-.04-1.01-.67-2.43-2.19-2.43-1.2 0-1.98.59-2.21 1-.25-.37-.67-.94-1.9-1-.98-.05-1.46.59-1.7.91z" fill="#253746"/></svg>

<!-- by TradingView --><svg xmlns="http://www.w3.org/2000/svg" width="18" height="18"><path fill="#60BB46" d="M0 0h18v18H0z"/><path d="M6 5H4v8h2V8.46C6 8.05 5.97 7 7 7c1 0 1 .94 1 1.46V13h2V8.66c0-.8.12-1.7 1-1.66.88.03 1 .7 1 1.14V13h2V7.43C13.96 6.42 13.33 5 11.81 5c-1.2 0-1.98.59-2.21 1-.25-.37-.67-.94-1.9-1-.98-.05-1.46.59-1.7.91V5z" fill="#253746"/></svg>
